X: 18
T: Farewell To Ireland
Z: Guilleflute
S: https://thesession.org/tunes/33#setting46526
R: reel
M: 4/4
L: 1/8
K: Ador
A3c ~e3f|gedB GBdB|~A3c edef|gedg eAAG|
~A3c ~e3f|gedB G2gf|edeg a2ba|1 gedB BAAG:|2 gedB BAA2||
~a3b agef|~g3a gedg|eaab agef|gedB BA^ce|
agef g2ge|dedB GABd|cAdA Bdef|1 gedB BA^ce:|2 gedB BAgf||
eAPBA eA^ce|d^cdB GABd|eAPBA ~e3f|gedB BA^cd|
eAPBA eA^ce|d^cdB GABd|cAdA Bdef|1 gedB BA^cd:|2 gedB BA^ce||
ae^ce ae^ce|gdBd gdBd|ae^ce ~a3f|gedB BA^ce|
agef g2ge|dedB GABd|cAdA Bdef|1 gedB BA^ce:|2 gedB BAGB||A4||

